X:1
T:Title
%%score { 1 | 2 }
L:1/8
M:3/4
K:F
V:1 treble nm="Grand Piano"
V:2 bass 
V:1
 z2 z2[Q:1/4=100] A>G | F2 F2 (3[B,-D-G][B,D][K:bass][F,B,D] | [F,A,C]4[K:treble] [CGB]>[CFA] | %3
 [CEG]2 [A,C]2 [F,CF]>G | A4 c>B | A2 F2 (3[D-G][DF]D | D4 D>D | C2 F2 (3FE[B,CG] | %8
[M:2/4] [F,A,CF]4 |[M:1/4] [CFA]>[CFA] |[M:3/4] [EG]2 [EG]2 [FA]>[FA] | [EG]4 A>G | F2 E2 [CF]>G | %13
 A4 c>c | c2 A2 (3:2:2G2 F | [DF]4 D>D | C2 F2 (3FE[B,CG] |[M:2/4] [F,A,CF]4 |] %18
V:2
 z2 z2 [F,CF]>[F,B,C] | [F,A,C]2 [F,A,C]2 (3B,,-[B,,F]B,, | F,,4 E,>F, | C,2 F,2 A,,>[C,E,C] | %4
 [F,C]4 [F,A,F]>[F,G,C] | [F,C]2 [F,A,C]2 (3:2:2[B,,B,]2 [B,,F,B,] | %6
 [B,,F,B,]4 [B,,F,B,]>[B,,F,B,] | [C,F,A,]2 [C,A,C]2 (3[C,-A,C-][C,G,C]C, |[M:2/4] F,,4 | %9
[M:1/4] F,>F, |[M:3/4] [C,C]2 [C,C]2 [C,C]>[C,C] | [C,C]4 [F,C]>[_E,F,B,] | %12
 [D,F,A,]2 [C,G,B,]2 [A,,F,]>[C,E,C] | [F,C]4 [F,A,F]>[F,A,F] | %14
 [F,A,F]2 [F,CF]2 (3:2:2[F,B,D]2 [F,A,C] | [B,,B,]4 [B,,F,B,]>[B,,F,B,] | %16
 [C,F,A,]2 [C,A,C]2 (3[C,-A,C-][C,G,C]C, |[M:2/4] F,,4 |] %18

